X:141
M:6/8
L:1/8
K:Gmin
|: Bd=f f2 e | Ace e2d | cBA GAB | A^FD D3 | Bd=f f2e | Ace e2d | cBA ^FGA | GDB, G,3 :|

